!!!!SEGMENT: pl-wtm--670-sp-3678--001-023_reinecke-carl--piosenki-dla-mlodocianego-wieku-piotr-maszynski-23-modlitwa-dzieci.krn
!!!cenid: 18xx:4775
!!!COM: Reinecke, Carl
!!!COM-rismID: pe42007
!!!CDT: 1824/06/23-1910/03/10
!!!CNT: German
!!!GTL: Piosenki dla młodocianego wieku (Piotr Maszyński)
!!!OTL: 23. Modlitwa dzieci
!!!OMV: 023
!!!PDT: 1871
!!!AGN: Secular; Song; Children
!!!YEC: Copyright 2022 Narodowy Instytut Fryderyka Chopina (https://polishscores.org)
!!!YEM: License CC-BY-4.0 (https://creativecommons.org/licenses/by/4.0)
!!!SMS-siglum: PL-Wtm
!!!SMS-shelfmark: 670 śp 3678
!!!SMS-variant:
!!!SMS-altvar:
!!!SMS-shelfwork: 001-023 G
!!!NIFC-rismSourceID: 1001185478
!!!NIFC-rismChildID: 1001185478
!!!NIFC-islandoraID: pl-wtm:57754
!!!URL-pdf-islandora: https://repozytorium.nifc.pl/islandora/object/pl-wtm%3A57754/datastream/PDF/view
!!!URL-scan: https://polish.musicsources.pl/pl/lokalizacje/galeria/druki-muzyczne/19483/15 @EN{Scan on Polish Music Sources Website} @PL{Skany w portalu Dziedzictwo Muzyki Polskiej w otwartym dostępie}
!!!IIIF:
!!!ONB-nifc:
!!!AIN: 1 canto 1 piano
!!!key: B-
**kern	**kern	**dynam	**kern	**text	**text	**text	**dynam
*part2	*part2	*part2	*part1	*part1	*part1	*part1	*part1
*staff3	*staff2	*staff2/3	*staff1	*staff1	*staff1	*staff1	*
*IGacmp	*IGacmp	*	*	*	*	*	*
*ICklav	*ICklav	*	*ICvox	*	*	*	*
*Ipiano	*Ipiano	*	*Icanto	*	*	*	*
*I"Fortepian.	*I"Fortepian.	*	*I"Śpiew.	*	*	*	*
*I'	*I'	*	*I'	*	*	*	*
*clefF4	*clefG2	*	*clefG2	*	*	*	*
*k[b-e-]	*k[b-e-]	*	*k[b-e-]	*	*	*	*
*B-:	*B-:	*	*B-:	*	*	*	*
*M6/8	*M6/8	*	*M6/8	*	*	*	*
*	*	*	*^	*	*	*	*
!!LO:TX:t=W dzień Bożego Narodzeniȧ.
!!LO:TX:a:B:t=Andantino con moto.
8B-\	8b- 8d/	mf	8b-/	8d\	O	Bło-	Byś	.
=1	=1	=1	=1	=1	=1	=1	=1	=1
*	*^	*	*	*	*	*	*	*
(8B-\L	4b-/	(8d\L	.	4b-/	8d\L	Je-	-go-	dziat-	.
8c\	.	8e-\	.	.	8e-\J	.	.	.	.
8d\J)	8a/	8f\J)	.	8a/	8f\	-zu	-sław	-ki	.
4e-\	(>8g/L	4ryy	.	(8g/L	4g\	Chry-	ma-	te	.
.	8a/)	.	.	8a/J)	.	.	.	.	.
8d\	8b-/J	8f\	.	8b-/	8f\	-ste	-łym	za-	.
*	*v	*v	*	*	*	*	*	*	*
=2	=2	=2	=2	=2	=2	=2	=2	=2
4c\	4cc 4g 4e-/	.	4cc/	4e-\	Pa-	dzie-	-li-	.
8F\	8dd 8a 8f/	.	8dd/	8f\	-nie	-ciom	-czać	.
4.d 4.B-\	4b- 4f/	.	4b-/	4d\	nasz!	też,	mógł	.
.	8dd 8f/	.	8dd/	8f\	Dziś	rządź	do	.
=3	=3	=3	=3	=3	=3	=3	=3	=3
*	*^	*	*	*	*	*	*	*
4B-\	4dd 4f/	4.ryy	.	4dd/	4f\	świa-	nie-	zaw-	.
8A\	8dd 8f/	.	.	8dd/	8f\	-tu	-mi	-sze	.
4B- 4G\	(8dd/L	4f\	.	(8dd/L	4f\	się	zaw-	wier-	.
.	8ff/)	.	.	8ff/J)	.	.	.	.	.
8B- 8G\	8een/J	8g\	.	8een/	8g\	na	-sze	-nych	.
*	*v	*v	*	*	*	*	*	*	*
!!LO:LB:g=original
=4	=4	=4	=4	=4	=4	=4	=4	=4
4.A\	4cc#X 4en/	.	4cc#X/	4en\	ro-	ja-	To-	.
.	8een 8g\	.	8een/	8g\	-dzić	-ko	-bie	.
4.A 4.D\	4.dd 4.f/	.	4.dd/	4.f\	masz,	wiesz,	sług,	.
=5	=5	=5	=5	=5	=5	=5	=5	=5
*	*^	*	*	*	*	*	*	*
!	!	!	!LO:DY:t=più %s	!	!	!	!	!	!
4.c 4.C\	8ee-XL 8g/	4.ryy	f	8ee-X/	8g\	toż	a	co	.
.	8dd 8f/	.	.	8dd/	8f\	Cię	nie-	ca-	.
.	8ccnJ 8e-X/	.	.	8ccn/	8e-X\	ze	-chaj	-łem	.
4c 4E-\	4g/	4g\	.	4g/	4g\	wszyst-	ich	ser-	.
8c 8E-\	8a/	[8f\	.	8a/	8f\	-kich	nie-	-cem	.
=6	=6	=6	=6	=6	=6	=6	=6	=6	=6
4B- 4D\	4b-/	8f\]	.	4b-/	4f\	zie-	-win-	Cie-	.
.	.	[4f\	.	.	.	.	.	.	.
8A 8C\	8cc/	.	.	8cc/	8f\	-mi	-nych	-bie	.
8B-L 8BB-\	4.dd/	4.f\]	.	4.dd/	4.f\	stron	dusz	czczą;	.
8c\	.	.	.	.	.	.	.	.	.
8d\J	.	.	.	.	.	.	.	.	.
*	*v	*v	*	*	*	*	*	*	*
=7	=7	=7	=7	=7	=7	=7	=7	=7
[4.c [4.C\	8ee-L 8g/	.	8ee-/	8g\	wi-	strze-	Bo-	.
.	8dd 8f/	.	8dd/	8f\	-ta	-że	-że	.
.	8ccJ 8e-/	.	8cc/	8e-\	ra-	z Twej	Dzie-	.
8c]L 8C\]	4g/	.	4g/	4g\	-do-	rę-	-ciąt-	.
[8e-\	.	.	.	.	.	.	.	.
8e-]J 8c\	8a 8f#X/	.	8a/	8f#X\	-snej	-ki	-ko	.
!!LO:LB:g=original
=8	=8	=8	=8	=8	=8	=8	=8	=8
*^	*	*	*	*	*	*	*	*
!	!	!LO:TX:a:i:t=rall	!	!LO:TX:a:i:t=rall	!	!	!	!	!
(4d'/	4.G\	(4b- 4g'/	p	4b-/	4g\	pie-	A-	daj	.
8c'/)	.	8cc 8a'/)	.	8cc/	8a\	-śni	-nioł	nam	.
4.B-; 4.G\	4.ryy	4.dd 4.b-;\	.	4.dd;/	4.b-\	ton.	stróż.	to.	.
=9	=9	=9	=9	=9	=9	=9	=9	=9	=9
*	*	*^	*	*	*	*	*	*	*
!	!	!	!	!	!	!	!	!	!	!LO:HP:a
!	!	!LO:TX:a:i:t=Poco sostenuto	!	!	!LO:TX:a:i:t=Poco sostenuto	!	!	!	!	!LO:DY:a:rj
4B-/	4.E-\	8g/L	4ryy	mf <	8g/	8g\	.	O	.	mf <
.	.	8g/	.	.	8g/	8g\	.	Je-	.	.
8c/	.	8a/J	8f\	.	8a/	8f\	.	-zu	.	.
4B- 4D\	4.ryy	8b-/L	4f\	.	8b-/L	4f\	.	Chry-	.	[
.	.	8dd/	.	.	8dd/J	.	.	.	.	.
.	.	.	.	[	.	.	.	.	.	.
8c 8E-\	.	8cc/J	8g\	.	8cc/	8e-\	.	-ste	.	.
*v	*v	*	*	*	*	*	*	*	*	*
*	*v	*v	*	*	*	*	*	*	*
=10	=10	=10	=10	=10	=10	=10	=10	=10
!	!	!	!	!	!	!	!	!LO:HP:a
!	!	!	!	!	!	!	!	!LO:DY:a
2.F\	4.b- [4.f 4.d/	f >	(4.b-/	(4.d\	.	Pa-	.	f >
.	4a 4f] 4c/	.	4a/)	4c\)	.	.	.	.
.	8b- 8d/	]]	8b-/	8d\	.	-nie	.	.
=11	=11	=11	=11	=11	=11	=11	=11	=11
!	!	!	!	!	!	!	!	!LO:DY:a
[4.F [4.BB-\	[4.b- [4.f [4.d/	p	[4.b-/	[4.d\	.	nasz!	.	] p
4F] 4BB-;\]	4b-] 4f] 4d;/]	.	4b-;/]	4d\]	.	.	.	.
*	*	*	*v	*v	*	*	*	*
==	==	==	==	==	==	==	==
*-	*-	*-	*-	*-	*-	*-	*-
!!!system-decoration: s1{(s2,s3)}
!!!RDF**kern: > = above
!!!RDF**kern: < = below
!!!RDF**kern: N = linked
!!!ENC: Andrzej Gręziak
!!!EED: Katarzyna Serwa
!!!END: 2025-03-26
!!!EEV: 2025-04-01
